X: 17207
T: Henry's Welcome
R: reel
M: 4/4
K: Cmajor
|:Acec dcBG|F2 FE FAGF|EGcG EGcG|BABc edcB|
Acec dcBG|F2 FE FAGF|Eccc Eccc|BcDE FGAB:|
|:aeee aege|fccc fcdf|Eccc gccc|BABc defg|
aeee aege|fccc fcdf|ecgc egcg|dfBc defg|
aeee aege|fccc fcdf|eccc gccc|BABc edcB:|

